neru-dark-classic/22x22/devices/input-tablet.svg

<?xml version="1.0" encoding="UTF-8" standalone="no"?>
<svg
   xmlns:dc="http://purl.org/dc/elements/1.1/"
   xmlns:cc="http://creativecommons.org/ns#"
   xmlns:rdf="http://www.w3.org/1999/02/22-rdf-syntax-ns#"
   xmlns:svg="http://www.w3.org/2000/svg"
   xmlns="http://www.w3.org/2000/svg"
   xmlns:sodipodi="http://sodipodi.sourceforge.net/DTD/sodipodi-0.dtd"
   xmlns:inkscape="http://www.inkscape.org/namespaces/inkscape"
   width="22"
   height="22"
   version="1.1"
   viewBox="0 0 16 16"
   id="svg7"
   sodipodi:docname="input-tablet.svg"
   inkscape:version="0.92.1 r">
  <metadata
     id="metadata11">
    <rdf:RDF>
      <cc:Work
         rdf:about="">
        <dc:format>image/svg+xml</dc:format>
        <dc:type
           rdf:resource="http://purl.org/dc/dcmitype/StillImage" />
      </cc:Work>
    </rdf:RDF>
  </metadata>
  <sodipodi:namedview
     pagecolor="#ffffff"
     bordercolor="#666666"
     borderopacity="1"
     objecttolerance="10"
     gridtolerance="10"
     guidetolerance="10"
     inkscape:pageopacity="0"
     inkscape:pageshadow="2"
     inkscape:window-width="769"
     inkscape:window-height="480"
     id="namedview9"
     showgrid="false"
     inkscape:zoom="10.727273"
     inkscape:cx="11"
     inkscape:cy="11"
     inkscape:window-x="0"
     inkscape:window-y="0"
     inkscape:window-maximized="0"
     inkscape:current-layer="svg7" />
  <defs
     id="defs3">
    <style
       id="current-color-scheme"
       type="text/css">
   .ColorScheme-Text { color:#d3dae3; } .ColorScheme-Highlight { color:#5294e2; }
  </style>
  </defs>
  <path
     style="color:#d3dae3;fill:currentColor;stroke-width:0.72670019"
     class="ColorScheme-Text"
     d="M 2.8722604,3.272079 C 2.429264,3.257618 2.1242461,3.6989572 2.190979,4.112326 c 0.00218,2.6624769 -0.00799,5.3313775 0,7.993701 0.030013,0.430868 0.4900503,0.673317 0.8856659,0.613153 2.8954497,-0.0022 5.7796789,0.0083 8.6749831,0 0.430868,-0.03001 0.673317,-0.49005 0.613153,-0.885666 5.8e-5,-1.430698 -2.18e-4,-2.8613655 0,-4.2920715 l -1.4534,1.4534 c -0.0022,0.754177 0,1.5101045 0,2.2709375 H 3.6443794 V 4.7254793 h 7.2670016 c 2.91e-4,0.030594 -2.76e-4,0.060244 0,0.090838 L 12.04685,3.6808478 c 0.05101,-0.051014 0.102094,-0.095314 0.158966,-0.1362562 C 12.10245,3.3988591 11.938543,3.272079 11.638081,3.272079 c -1.255832,7.3e-6 -4.0810751,5.82e-5 -8.7658206,0 z M 13.091481,3.9987791 c -0.201295,0 -0.390964,0.073033 -0.522315,0.2043845 L 8.2089649,8.5633645 c -0.131351,0.131351 -0.2043844,0.32102 -0.2043844,0.522316 v 0.7267 h 0.7267 c 0.2012959,0 0.3909647,-0.07303 0.5223157,-0.204385 L 13.613797,5.2477951 c 0.131351,-0.1313511 0.204385,-0.3210198 0.204385,-0.5223158 0,-0.4025919 -0.324109,-0.7267002 -0.726701,-0.7267002 z"
     id="path5"
     inkscape:connector-curvature="0" />
</svg>

<svg xmlns="http://www.w3.org/2000/svg" width="22" height="22" version="1.1" viewBox="0 0 16 16" id="svg7"><defs id="defs3"><style id="current-color-scheme" type="text/css"></style></defs><path d="M2.872 3.272c-.443-.014-.748.427-.681.84.002 2.663-.008 5.332 0 7.994.03.43.49.673.886.613 2.895-.002 5.78.008 8.675 0 .43-.03.673-.49.613-.885V7.54L10.91 8.995c-.002.754 0 1.51 0 2.27H3.644v-6.54h7.267v.091l1.136-1.135c.05-.051.102-.095.159-.136-.104-.146-.267-.273-.568-.273H2.872zM13.092 4a.737.737 0 0 0-.523.204l-4.36 4.36a.737.737 0 0 0-.204.523v.726h.726a.737.737 0 0 0 .523-.204l4.36-4.36a.737.737 0 0 0 .204-.523.725.725 0 0 0-.727-.726z" id="path5" color="#d3dae3" fill="currentColor" stroke-width=".727"/></svg>
